!!!COM: Haydn, Franz Joseph
!!!OTL: String Quartet in E-flat Major
!!!OPS: Opus 1
!!!ONM: No. 0
!!!OMD: Presto
!!!OMV: 1
!!!SCT: H II:6
!!!SCA: Thematisch-bibliographisches Werkevererzeichnis (A. van Hoboken)
!!!YOR: Bremner Edition, 1772
!!!ENC: Frances Bennion
!!!CDT: 1732/3/31/-1809/5/31/
!!!CNT: Oesterreich
!!!YEC: Copyright (c) 1994, 2000 Center for Computer Assisted Research in the Humanities
!!!YEM: Rights to all derivative editions reserved.
!!!YEM: Refer to licensing agreement for further details.
!!!YEN: United States of America
**kern	**kern	**kern	**kern
*Icello	*Iviola	*Ivioln	*Ivioln
*k[b-e-a-]	*k[b-e-a-]	*k[b-e-a-]	*k[b-e-a-]
*E-:	*E-:	*E-:	*E-:
*clefF4	*clefC3	*clefF	*clefF
*M2/4	*M2/4	*M2/4	*M2/4
2r	2r	2r	4e-
.	.	.	8.f
.	.	.	32e-
.	.	.	32f
=2	=2	=2	=2
2r	2r	2r	4g
.	.	.	4r
=3	=3	=3	=3
2r	2r	4e-	4g
.	.	8.f	8.a-
.	.	32e-	32g
.	.	32f	32a-
=4	=4	=4	=4
2r	2r	4g	4b-
.	.	4r	4r
=5	=5	=5	=5
2r	4e-	4g	[2ee-
.	8.f	8.a-	.
.	32e-	32g	.
.	32f	32a-	.
=6	=6	=6	=6
2r	4g	4b-	8ee-]
.	.	.	8dd
.	4r	4r	8ee-
.	.	.	8ff
=7	=7	=7	=7
4E-	4e-	2r	8gg
.	.	.	8r
8.F	8.d	.	8aa-
.	.	.	8r
32E-	16c	.	.
32F	.	.	.
=8	=8	=8	=8
4G	4B-	2r	8bb-
.	.	.	4r
4r	4r	.	.
.	.	.	8eee-
=9	=9	=9	=9
2r	2r	2r	8bb-
.	.	.	8eee-
.	.	.	8bb-
.	.	.	8eee-
=10	=10	=10	=10
4r	4r	4r	8bb-
.	.	.	8r
8C	8c	8G	8e-
8r	8r	8r	8r
=11	=11	=11	=11
8AA-	8A-	8c	8f
8r	8r	8r	8r
8BB-	8F	8A-	8d
8r	8r	8r	8r
=12	=12	=12	=12
8E-	8E-	8G	8e-
4.r	4.r	4.r	4.r
=13	=13	=13	=13
8AA-	8c	8f	8a-
8r	8r	8r	8r
8BB-	8A-	8d	8f
8r	8r	8r	8r
=14	=14	=14	=14
4E-	4G	4e-	4e-
4r	4r	4r	4r
=15	=15	=15	=15
8r	4B- 4d	4b- 4d	16d
.	.	.	16b-
8B-	.	.	16ff
.	.	.	16b-
8d	8r	8r	8ff
8B-	8b-	8dd	8r
=16	=16	=16	=16
8r	8a	8ee-	16A
.	.	.	16f
8F	4r	4r	16ee-
.	.	.	16f
8A	.	.	8ee-
8F	8a	8ee-	8r
=17	=17	=17	=17
8r	8b-	8dd	16B-
.	.	.	16f
8BB-	4r	4r	16dd
.	.	.	16f
8D	.	.	8dd
8BB-	8b-	8dd	8r
=18	=18	=18	=18
8r	8a	8cc	16A
.	.	.	16f
8F	4r	4r	16cc
.	.	.	16f
8A	.	.	8cc
8F	8f	8cc	8r
=19	=19	=19	=19
2BB-	2f	2dd	16d
.	.	.	16b-
.	.	.	16ff
.	.	.	16b-
.	.	.	8ff
.	.	.	8r
=20	=20	=20	=20
2F	2A	2ee-	16A
.	.	.	16f
.	.	.	16ee-
.	.	.	16f
.	.	.	8ee-
.	.	.	8r
=21	=21	=21	=21
2B-	4.F	2dd	16B-
.	.	.	16f
.	.	.	16dd
.	.	.	16f
.	.	.	8dd
.	8G	.	8r
=22	=22	=22	=22
2F	2A	2cc	16A
.	.	.	16f
.	.	.	16cc
.	.	.	16f
.	.	.	8cc
.	.	.	8r
=23	=23	=23	=23
8BB-	4B-	4b-	4.d 4.b-
8B-	.	.	.
8A	4r	4r	.
8G	.	.	8bb-
=24	=24	=24	=24
8F	2r	2r	8aa
8E-	.	.	8gg
8D	.	.	8ff
8C	.	.	8ee-
=25	=25	=25	=25
4BB-	4.r	4.r	8dd
.	.	.	8cc
4r	.	.	8b-
.	8g	8b-	8r
=26	=26	=26	=26
2r	8f	8a	2r
.	8e-	8g	.
.	8d	8f	.
.	8c	8e-	.
=27	=27	=27	=27
4.r	8B-	8d	4.r
.	8A	8c	.
.	8B-	8B-	.
8B-	8r	8r	8ddd
=28	=28	=28	=28
8A	2r	2r	8ccc
8G	.	.	8bb-
8F	.	.	8aa
8E-	.	.	8gg
=29	=29	=29	=29
8D	4.r	4.r	8ff
8C	.	.	8ee-
8BB-	.	.	8dd
8r	8d	8f	8r
=30	=30	=30	=30
2r	8e-	8g	2r
.	8f	8a	.
.	8g	8b-	.
.	8a	8cc	.
=31	=31	=31	=31
4r	8b-	8dd	4r
.	8cc	8ee-	.
8D	8dd	4ff	16bb-
.	.	.	16bb-
8B-	8b-	.	16bb-
.	.	.	16bb-
=32	=32	=32	=32
8E-	8e-	16e-	16e-
.	.	16e-	16e-
8B-	8b-	16e-	16e-
.	.	16e-	16e-
8F	8f	16f	16f
.	.	16f	16f
8B-	8b-	16f	16f
.	.	16f	16f
=33	=33	=33	=33
8G	8g	16g	8g
.	.	16g	.
8B-	8b-	16g	8r
.	.	16g	.
8D	16f	16b-	8ff 8d 8b-
.	16f	16b-	.
8D	16f	16b-	8r
.	16f	16b-	.
=34	=34	=34	=34
8E-	16e-	16b-	8gg 8b- 8e-
.	16e-	16b-	.
8E-	16e-	16b-	8r
.	16e-	16b-	.
8F	16c	16a	8e- 8a 8c
.	16c	16a	.
8F	16c	16a	8r
.	16c	16a	.
=35	=35	=35	=35
8BB-	4B-	4b-	4B- 4f 4b-
8B-	.	.	.
4BB-	4r	4r	4r
=36	=36	=36	=36
2r	2r	4dd	4ff
.	.	8.cc	8.ee-
.	.	32b-	32dd
.	.	32cc	32ee-
=37	=37	=37	=37
4d	4f	4b-	4dd
8.c	8.e-	4r	4r
32B-	32d	.	.
32c	32e-	.	.
=38	=38	=38	=38
4B-	4d	4gg	4bb-
4r	4r	8.ff	8.aa-
.	.	32ee	32gg
.	.	32ff	32aa-
=39	=39	=39	=39
4E-	4g	4ee-	4gg
8.F	8.a-	4r	4r
32E-	32g	.	.
32F	32a-	.	.
=40	=40	=40	=40
4G	4b-	2e-	4ee-
4GG	4B-	.	8.dd-
.	.	.	32cc
.	.	.	32dd-
=41	=41	=41	=41
8AA-	8A-	16A-	4cc
.	.	16e-	.
8A-	8c	16cc	.
.	.	16e-	.
8c	8e-	8cc	8r
8A-	8c	8r	8ccc
=42	=42	=42	=42
8r	8r	16G	8bb-
.	.	16e-	.
8E-	8g	16dd-	8gg
.	.	16e-	.
8G	8b-	8dd-	8ee-
8E-	8g	8r	8dd-
=43	=43	=43	=43
8r	8r	16A-	8cc
.	.	16e-	.
8AA-	8a-	16cc	8ee-
.	.	16e-	.
8C	8e-	8cc	8r
8AA-	8c	8r	8ccc
=44	=44	=44	=44
8r	8r	16G	8bb-
.	.	16e-	.
8E-	8g	16dd-	8gg
.	.	16e-	.
8G	8b-	8dd-	8ee-
8E-	8g	8r	8dd-
=45	=45	=45	=45
8r	8r	16A-	8cc
.	.	16e-	.
8AA-	8a-	16cc	8ee-
.	.	16e-	.
8C	8e-	8cc	8r
8AA-	8c	8r	8aa-
=46	=46	=46	=46
8r	8r	16e	8gg
.	.	16cc	.
8C	8e	16gg	8ee
.	.	16cc	.
8E	8g	8gg	8cc
8C	8e	8r	8b-
=47	=47	=47	=47
8r	8r	16f	8a-
.	.	16cc	.
8F	8a-	16aa-	8cc
.	.	16cc	.
8A-	8cc	8aa-	8r
8F	8a-	8r	8aa-
=48	=48	=48	=48
8r	8r	16d	8aa-
.	.	16b-	.
8BB-	8d	16aa-	8ff
.	.	16b-	.
8D	8f	8aa-	8dd
8BB-	8d	8r	8a-
=49	=49	=49	=49
8r	8r	16e-	8g
.	.	16b-	.
8E-	8g	16gg	8ee-
.	.	16b-	.
8G	8b-	8gg	8r
8E-	8g	8r	8bb-
=50	=50	=50	=50
8r	8r	16A-	8ccc
.	.	16f	.
8A-	8cc	16cc	8aa-
.	.	16f	.
8AA-	8cc	8cc	8ff
8AA	8c	8r	8ee-
=51	=51	=51	=51
4BB-	4B-	16B-	8dd
.	.	16d	.
.	.	16b-	8bb-
.	.	16d	.
8r	8r	8b-	8r
8B-	8b-	8b-	8b-
=52	=52	=52	=52
8A-	8a-	8a-	8a-
8G	8g	8g	8g
8F	8f	8f	8f
8E-	8e-	8e-	8e-
=53	=53	=53	=53
8BB-	8B-	8B-	8B-
8B-	8b-	8b-	8b-
4r	4r	4r	4r
=54	=54	=54	=54
4E-	4e-	4e-	2bb-
4BB-	4d	8.f	.
.	.	32e-	.
.	.	32f	.
=55	=55	=55	=55
4EE-	4e-	4g	8bb-
.	.	.	8eee-
4r	4r	4r	8bb-
.	.	.	8eee-
=56	=56	=56	=56
4BB-	4d	4f	2bb-
4r	8.e-	8.g	.
.	32d	32f	.
.	32e-	32g	.
=57	=57	=57	=57
4BB-	4f	4a-	8bb-
.	.	.	8ddd
4r	4r	4r	8bb-
.	.	.	8ddd
=58	=58	=58	=58
4E-	4e-	4g	2bb-
4r	8.f	8.a-	.
.	32e-	32g	.
.	32f	32a-	.
=59	=59	=59	=59
4E-	4g	4b-	8bb-
.	.	.	8ddd-
4r	4r	4r	8ddd-
.	.	.	8ddd-
=60	=60	=60	=60
4A-	4a-	4e-	8ccc
.	.	.	8ee-
4r	4r	4r	8ee-
.	.	.	8ee-
=61	=61	=61	=61
4G	4g	4e-	8bb-
.	.	.	8ee-
4E-	4e-	4r	8ee-
.	.	.	8ee-
=62	=62	=62	=62
2B-	2B-	4a-	8dd
.	.	.	8ff
.	.	4g	8ee-
.	.	.	8b-
=63	=63	=63	=63
2BB-	2B-	4a-	8dd
.	.	.	8ff
.	.	4g	8ee-
.	.	.	8b-
=64	=64	=64	=64
4BB-	4B-	4d	8a-
.	.	.	8f
4BB-	4B-	4e-	8g
.	.	.	8e-
=65	=65	=65	=65
4BB-	4B-	4B-	4B-
8E-	8e-	8e-	8e-
8r	8r	8r	8r
=66	=66	=66	=66
8F	8f	8d	8a-
8r	8r	8r	8r
8E-	8e-	8e-	8g
8r	8r	8r	8r
=67	=67	=67	=67
4B-	4B-	4d	4f
4r	4r	4r	4r
=68	=68	=68	=68
8r	4.r	4.r	16d
.	.	.	16b-
8B-	.	.	16aa-
.	.	.	16b-
8d	.	.	8aa-
8B-	8dd	8aa-	8r
=69	=69	=69	=69
8r	8ee-	8gg	16e-
.	.	.	16b-
8E-	4r	4r	16gg
.	.	.	16b-
8G	.	.	8gg
8E-	8b-	8gg	8r
=70	=70	=70	=70
8r	8a-	8ff	16B-
.	.	.	16f
8BB-	4r	4r	16dd
.	.	.	16f
8D	.	.	8dd
8BB-	8a-	8ff	8r
=71	=71	=71	=71
8r	8g	8ee-	16B-
.	.	.	16g
8EE-	4r	4r	16ee-
.	.	.	16g
8GG	.	.	8ee-
8EE-	8g	8ee-	8r
=72	=72	=72	=72
2BB-	2a-	2dd	16d
.	.	.	16b-
.	.	.	16aa-
.	.	.	16b-
.	.	.	8aa-
.	.	.	8r
=73	=73	=73	=73
2E-	2g	2ee-	16e-
.	.	.	16b-
.	.	.	16gg
.	.	.	16b-
.	.	.	8gg
.	.	.	8r
=74	=74	=74	=74
2B-	2d	2a-	16B-
.	.	.	16f
.	.	.	16dd
.	.	.	16f
.	.	.	8dd
.	.	.	8r
=75	=75	=75	=75
2E-	2e-	2g	16B-
.	.	.	16g
.	.	.	16ee-
.	.	.	16g
.	.	.	8ee-
.	.	.	8r
=76	=76	=76	=76
8E-	4e-	4e- 4G	4.G 4.e-
8e-	.	.	.
8d	4r	4r	.
8c	.	.	8ee-
=77	=77	=77	=77
8B-	2r	2r	8dd
8A-	.	.	8cc
8G	.	.	8b-
8F	.	.	8a-
=78	=78	=78	=78
4E-	4.r	4.r	8g
.	.	.	8f
4r	.	.	8e-
.	8c	8e-	8r
=79	=79	=79	=79
2r	8B-	8d	2r
.	8A-	8c	.
.	8G	8B-	.
.	8F	8A-	.
=80	=80	=80	=80
4.r	8E-	8G	4.r
.	8F	8A-	.
.	8G	8B-	.
8e-	8r	8r	8gg
=81	=81	=81	=81
8d	2r	2r	8ff
8c	.	.	8ee-
8B-	.	.	8dd
8A-	.	.	8cc
=82	=82	=82	=82
8G	4.r	4.r	8b-
8F	.	.	8a-
8E-	.	.	8g
8r	8G	8B-	8r
=83	=83	=83	=83
2r	8A-	8c	2r
.	8B-	8d	.
.	8c	8e-	.
.	8d	8f	.
=84	=84	=84	=84
4r	8e-	8g	4r
.	8f	8a-	.
8GG	8g	4b-	16ee-
.	.	.	16ee-
8E-	8e-	.	16ee-
.	.	.	16ee-
=85	=85	=85	=85
8AA-	8A-	16A-	16A-
.	.	16A-	16A-
8E-	8e-	16A-	16A-
.	.	16A-	16A-
8BB-	8B-	16B-	16B-
.	.	16B-	16B-
8E-	8e-	16B-	16B-
.	.	16B-	16B-
=86	=86	=86	=86
8C	8c	16c	8c
.	.	16c	.
8E-	8e-	16c	8r
.	.	16c	.
8GG	16B-	16e-	8b- 8G 8e-
.	16B-	16e-	.
8GG	16B-	16e-	8r
.	16B-	16e-	.
=87	=87	=87	=87
8AA-	16A-	16e-	8e- 8cc 8A-
.	16A-	16e-	.
8AA-	16A-	16e-	8r
.	16A-	16e-	.
8BB-	16F	16d	8d 8B-
.	16F	16d	.
8BB-	16F	16d	8r
.	16F	16d	.
=88	=88	=88	=88
4EE-	4E-	4e-	4G 4e-
4r	4r	4r	4r
=89	=89	=89	=89
2BB-	2B-	4g	4b-
.	.	8.f	8.a-
.	.	32e-	32g
.	.	32f	32a-
=90	=90	=90	=90
4C	4c	4e-	4g
4r	4r	4r	4r
=91	=91	=91	=91
8AA-	8A-	8c	8f 8A-
8r	8r	8r	8r
8BB-	8F	8d	8d 8B-
8r	8r	8r	8r
=92	=92	=92	=92
4EE-	4E-	4G 4e-	4e- 4G
4r	4r	4r	4r
==	==	==	==
*-	*-	*-	*-
!!!RWG1: This file contains only pitch and duration data.
!!!RWG2: Transposing instruments are not transposed.
!!!RWG3: Spines may have incompatible meters.
!!!RWG4: Durations of rests and tied notes may be interpreted.
!!!RWG: Key is interpreted using the Humdrum key tool.
!!!GTL: 10 Divertimentos
!!!AFT: stage1
!!!END: 1997/04/15
!!!KEY: 3930744880
!!!EMD: Converted from MuseData to Humdrum Dec 16, 2000, by Andreas Kornstaedt using muse2kern.
!!!EMD: Manual editing by Craig Sapp, Nov 2001
